[A]
T3@11V15,6
L1O3D+RDRC+RC9R7R3
L1O3D+RDRC+RC9R7R3
L1O5F8E3D+9R3
L1O3F+RFRERD+9R7R3
L1O3F+RFRERD+9R7R3
L8O5DD+3DR3CC+3O4G+O5C3O4F9R7
L5O4E8FGG+A+O5C
[B]
T3V16S0N2
L3M3XXM5XM3XXXM5XM3XM3XXM5XM3XXXM5XM3X
L3M3XXM5XM3XXXM5XM3XM3XXM5XM3XXXM5XM3X
L3M3XXM5XM3XXXM5XM3XM3XXM5XM3XXXM5XM3X
L3M3XXM5XM3XXXM5XM3XM3XXM5XM3XXXM5XM3X
L3M3XXM5XM3XXXM5XM3XM3XXM5XM3XXXM5XM3X
L3M3XXM5XM3XXXM5XM3XM3XXM5XM3XXXM5XM3X
L3M3XXM5XM3XXXM5XM3XM3XXM5XM3XXXM5XM3X
L3M3XXM5XM3XXXM5XM3XM3XXM5XM3XXXM5XM3X
L3M3XXM5XM3XM5XXX
[C]
T3@2V15,3
L3R9R7RO5D+CF
L3R9R7RO5D+CF
L9RR8R3O5F1E5
L3R1R8R7RO5C+O4A+O5D+
L3R9R7RO5C+O4A+O5D+
L5R9R9R9R8O4C+7C+C+C+C9CCCC
