[A]
T3V15,4@2L1O5BF+EO4BO5EF+BF+EO4BO5EF+B5
T3V15,4@7L3R5O5ARG+ERARG+R5RG+5G+5F+F+8O4F+6D+7R
[B]
T3V15,4@2L9R
T3V15,4@2L3O2EO3EO2EO3EO2EO3EO2EO3EO2EO3EO2EO3EO2EO3EO2EO3EO2DO3DO2DO3DO2DO3DO2DO3DO2DO3DO2DO3DO2DO3DO2DO3D
[C]
T3V15,4@7L9R
T3V15,4@7L3R5O4BRBBRBRBR5RB5B5AA8O3A6A7R

